X: 8489
T: Crazy Mexican Dude, The
R: reel
M: 4/4
K: Aminor
Acde zddA|BcAe aged|cAdB zGGE|DEGc zBAG|
Acde zddA|BcAe aged|edcA c/d/cAc|BGEG A2 z2|
Acde zddA|BcAe aged|cAdB zGGE|DEGc zBAG|
Acde zddA|BcAe aged|edcA c/d/cAc|BGEG A2 dd|

